**kern	**kern
*staff2	*staff1
*clefF4	*clefG2
*k[b-e-]	*k[b-e-]
*M4/4	*M4/4
=62	=62
8AA]	4f 4ff
4FF	.
.	4c 4cc
4F	.
.	4A 4a
4F	.
.	4f
[8F	.
=63	=63
8F]	4G 4g
4E	.
.	4A 4a
4E-	.
.	4B- 4b-
4D	.
.	4c 4cc
[8C	.
=64	=64
8C]	4d 4dd
4BB-	.
.	4f 4ff
4D	.
.	4b- 4bb-
4F	.
.	4dd 4ddd
[8B-	.
=65	=65
8B-]	4ff 4fff
4F	.
.	4dd 4ddd
4B-	.
.	4ee- 4eee-
4F	.
.	4cc 4ccc
[8A	.
=66	=66
8A]	4dd 4ddd
4B-	.
.	4b- 4bb-
4F	.
.	4f 4ff
4D	.
.	4d 4dd
[8BB-	.
=67	=67
8BB-]	4f 4ff
4FF	.
.	4d 4dd
4BB-	.
.	4e- 4ee-
4FF	.
.	4c 4cc
[8AA	.
=68	=68
8AAL]	4B- 4b-
8BB-	.
8FF	4r
8DDJ	.
4BBB-	2r
4r	.
=	=
*-	*-
